X: 1
T: Floggins
M: C|
L: 1/8
K: G
[BG]G G/G/G [BG-]G[cG]G|[BG]G G/G/G Bdgd|[BG]G G/G/G [BG-]G[cG][BG]|AGFG ABcA:|
g3d (3Bcd dB|g3e fgaf|g3d BcdB|AGFG ABcA|
g3d (3Bcd dB|g3e fgag|bgaf gedB|AGFG ABcA|
|:(3Bcd gd (3Bcd gd|(3Bcd gd BGGB|(3ABc =fc (3ABc fc|(3ABc =fc A=FFc|
(3Bcd gd (3Bcd gd|(3Bcd ef g2ga|bgaf gedB|AGFG ABcA:|
